assets/Spider/Flat/spider_flat.svg

<svg width="32" height="32" viewBox="0 0 32 32" fill="none" xmlns="http://www.w3.org/2000/svg">
<path d="M26.23 3C26.23 2.72386 26.0061 2.5 25.73 2.5C25.4538 2.5 25.23 2.72386 25.23 3C25.23 6.19578 23.3825 9.09858 20.4794 10.4465L19.411 10.9443C19.3774 10.9293 19.3438 10.9145 19.3101 10.8999C19.7401 10.2799 19.9901 9.52992 19.9901 8.72992C19.9901 7.31573 19.2219 6.08122 18.08 5.4208V4.37C18.08 3.62 17.47 3 16.71 3V4.94776C16.5336 4.92282 16.3533 4.90991 16.1701 4.90991C15.9833 4.90991 15.7996 4.92331 15.62 4.9492V3C14.86 3 14.25 3.62 14.25 4.37V5.42666C13.1137 6.0885 12.35 7.3199 12.35 8.72992C12.35 9.53992 12.6 10.2899 13.03 10.8999C12.9944 10.9151 12.9588 10.9306 12.9234 10.9463L11.8511 10.4467C8.94803 9.09886 7.09999 6.19578 7.09999 3C7.09999 2.72386 6.87613 2.5 6.59999 2.5C6.32384 2.5 6.09999 2.72386 6.09999 3C6.09999 6.58415 8.17247 9.84122 11.4292 11.3534L11.8282 11.5393C10.7723 12.2226 9.88813 13.1482 9.25371 14.2368C6.36404 13.3463 4.133 10.9458 3.48909 7.91607C3.43168 7.64597 3.16618 7.47354 2.89607 7.53094C2.62596 7.58835 2.45353 7.85386 2.51094 8.12396C3.21881 11.4546 5.64361 14.1077 8.80046 15.1421C8.45441 15.9592 8.24028 16.8454 8.18459 17.7739C5.33068 18.9359 3.17204 21.4555 2.51094 24.566C2.45353 24.8361 2.62596 25.1017 2.89607 25.1591C3.16618 25.2165 3.43168 25.044 3.48909 24.7739C4.05168 22.1269 5.82583 19.96 8.19227 18.861C8.29718 20.275 8.76922 21.5864 9.51347 22.7002C7.38182 24.4247 6.09999 27.0412 6.09999 29.86C6.09999 30.1361 6.32384 30.36 6.59999 30.36C6.87613 30.36 7.09999 30.1361 7.09999 29.86C7.09999 27.3567 8.23354 25.0331 10.1201 23.4958C11.5867 25.1892 13.7528 26.2599 16.1701 26.2599C18.585 26.2599 20.7492 25.1912 22.2158 23.5007C24.0988 25.038 25.23 27.3593 25.23 29.86C25.23 30.1361 25.4538 30.36 25.73 30.36C26.0061 30.36 26.23 30.1361 26.23 29.86C26.23 27.0441 24.9508 24.4301 22.8231 22.7056C23.5686 21.5917 24.0417 20.28 24.1475 18.8656C26.5091 19.966 28.2791 22.1305 28.8409 24.7739C28.8984 25.044 29.1639 25.2165 29.434 25.1591C29.7041 25.1017 29.8765 24.8361 29.8191 24.566C29.1588 21.4592 27.0045 18.9419 24.1557 17.778C24.1 16.8468 23.8842 15.9586 23.5356 15.1401C26.6895 14.1043 29.1117 11.4525 29.8191 8.12396C29.8765 7.85386 29.7041 7.58835 29.434 7.53094C29.1639 7.47354 28.8984 7.64597 28.8409 7.91607C28.1973 10.9443 25.9681 13.3441 23.0804 14.2356C22.4438 13.1481 21.558 12.2234 20.5029 11.5387L20.9005 11.3535C24.1573 9.84131 26.23 6.58416 26.23 3Z" fill="#635994"/>
</svg>

<svg xmlns="http://www.w3.org/2000/svg" width="32" height="32" fill="none"><path fill="#635994" d="M26.23 3a.5.5 0 0 0-1 0 8.202 8.202 0 0 1-4.75 7.447l-1.069.497a9.967 9.967 0 0 0-.1-.044 3.818 3.818 0 0 0-1.23-5.48V4.37C18.079 3.62 17.469 3 16.709 3v1.948a3.856 3.856 0 0 0-1.09.001V3c-.76 0-1.37.62-1.37 1.37v1.057a3.818 3.818 0 0 0-1.22 5.473 8.37 8.37 0 0 0-.107.046l-1.072-.5A8.203 8.203 0 0 1 7.1 3a.5.5 0 0 0-1 0 9.202 9.202 0 0 0 5.33 8.353l.398.186a8.036 8.036 0 0 0-2.574 2.698 8.448 8.448 0 0 1-5.765-6.32.5.5 0 0 0-.978.207 9.45 9.45 0 0 0 6.29 7.018 7.96 7.96 0 0 0-.616 2.632 9.453 9.453 0 0 0-5.674 6.792.5.5 0 0 0 .978.208 8.455 8.455 0 0 1 4.703-5.913 7.955 7.955 0 0 0 1.321 3.84A9.205 9.205 0 0 0 6.1 29.86a.5.5 0 0 0 1 0 8.205 8.205 0 0 1 3.02-6.364 7.98 7.98 0 0 0 6.05 2.764 7.981 7.981 0 0 0 6.046-2.76 8.205 8.205 0 0 1 3.014 6.36.5.5 0 1 0 1 0c0-2.816-1.28-5.43-3.407-7.154a7.957 7.957 0 0 0 1.325-3.84 8.455 8.455 0 0 1 4.693 5.908.5.5 0 0 0 .978-.208 9.454 9.454 0 0 0-5.663-6.788 7.93 7.93 0 0 0-.62-2.638 9.45 9.45 0 0 0 6.283-7.016.5.5 0 1 0-.978-.208 8.448 8.448 0 0 1-5.76 6.32 8.095 8.095 0 0 0-2.578-2.697l.398-.185A9.203 9.203 0 0 0 26.23 3Z"/></svg>
